X:17   
T:Le bout du banc
C:Manu &amp; Frederic Paris
I:Bourree
Q:1/4=150
M:3/8  
K:D
F2F2G2 |F3D FG |A2A2G2 |F4D2 |
F2F2G2|F3D FG |A6:|D2A2F2 |
B3A GF |E2F2G2 |A2 GA Bc |d2 A2 F2|
B3A GF |E2 F2 G2 |A6:|
